packages/storefront-lwc/src/assets/fonts/flags/1x1/cf.svg

<svg height="512" width="512" xmlns="http://www.w3.org/2000/svg" xmlns:xlink="http://www.w3.org/1999/xlink"><clipPath id="a"><path d="m0 0h512v512h-512z"/></clipPath><g clip-path="url(#a)" fill-rule="evenodd"><path d="m-52-.506h768v127h-768z" fill="#00f"/><path d="m-52 383.5h768v128.5h-768z" fill="#ff0"/><path d="m-52 255h768v128.5h-768z" fill="#009a00"/><path d="m-52 126.49h768v128.5h-768z" fill="#fff"/><path d="m268 0h128v512h-128z" fill="#f00"/><path d="m109.493 112.306-33.543-23.196-33.434 23.424 11.604-39.204-32.516-24.685 40.723-1.034 13.333-38.674 13.562 38.56 40.758.782-32.336 24.866" fill="#ff0"/></g></svg>

<svg xmlns="http://www.w3.org/2000/svg" height="512" width="512" id="flag-icon-css-cf">
  <defs>
    <clipPath id="a">
      <path fill-opacity=".67" d="M0 0h512v512H0z"/>
    </clipPath>
  </defs>
  <g fill-rule="evenodd" clip-path="url(#a)">
    <path fill="#00f" d="M-52-.506h768v127H-52z"/>
    <path fill="#ff0" d="M-52 383.5h768V512H-52z"/>
    <path fill="#009a00" d="M-52 255h768v128.5H-52z"/>
    <path fill="#fff" d="M-52 126.49h768v128.5H-52z"/>
    <path fill="red" d="M268 0h128v512H268z"/>
    <path fill="#ff0" d="M109.493 112.306L75.95 89.11l-33.434 23.424L54.12 73.33 21.604 48.645l40.723-1.034L75.66 8.937l13.562 38.56 40.758.782-32.336 24.866"/>
  </g>
</svg>
